!!!OTL: "Trinklied" HEREIN ZUM WIRTSHAUS EIN
!!!ARE: Europa, Mitteleuropa, Deutschland, Niederrhein
!!!SCT: Z1330
!!!YEM: Copyright 1995, estate of Helmut Schaffrath.
**kern
*ICvox
*Ivox
*M4/4
*k[b-e-a-]
*E-:
{4b-
=1
4.b-
8a-
4.g
8a-
=2
2b-}
{2cc
=3
8cc
8b-
4b-
8b-
8a-
4a-
=4
4g
2r}
{4b-
=5
8b-
8a-
4a-
4.f
8f
=6
8g
8f
8g
8a-
4b-}
{4ee-
=7
8b-
8a-
4a-
4.f
8f
=8
8g
8f
8g
8a-
4b-}
{4ee-
=9
4.cc
8dd
4ee-
4cc
=10
4.b-
8a-
4g}
{8g
8b-
=11
8b-
8a-
4a-
8a-
8g
8a-
8b-
=12
2g
4r}
==
!!!AGN: Zech -, Schalks - Lied
!!!ONB: ESAC (Essen Associative Code) Database: ZUCCAL
!!!AMT: simple quadruple
!!!AIN: vox
!!!EED: Helmut Schaffrath
!!!EEV: 1.0
*-
